icons/attachment-24.svg

<svg width="24" height="24" viewBox="0 0 24 24" fill="none" xmlns="http://www.w3.org/2000/svg">
<path fill-rule="evenodd" clip-rule="evenodd" d="M11.25 1.5C9.73122 1.5 8.5 2.73122 8.5 4.25V18C8.5 20.4853 10.5147 22.5 13 22.5C15.4853 22.5 17.5 20.4853 17.5 18L17.5 5.75C17.5 5.33579 17.8358 5 18.25 5C18.6642 5 19 5.33579 19 5.75L19 18C19 21.3137 16.3137 24 13 24C9.68629 24 7 21.3137 7 18V4.25C7 1.90279 8.90279 0 11.25 0C13.5972 0 15.5 1.90279 15.5 4.25V17.25C15.5 17.9377 15.2358 18.6157 14.7365 19.1151C14.2357 19.6159 13.5605 19.875 12.875 19.875C12.5981 19.875 12.3036 19.7814 12.0575 19.6657C11.7959 19.5428 11.5148 19.3603 11.2696 19.1151C10.7748 18.6202 10.4998 17.9443 10.4998 17.25V5.75C10.4998 5.33579 10.8356 5 11.2498 5C11.664 5 11.9998 5.33579 11.9998 5.75V17.25C11.9998 17.552 12.1207 17.8448 12.3303 18.0544C12.4373 18.1615 12.5697 18.2491 12.6955 18.3082C12.7573 18.3372 12.8102 18.3559 12.849 18.3665C12.8687 18.3718 12.8809 18.3741 12.8861 18.375C13.1926 18.3722 13.4746 18.2556 13.6758 18.0544C13.881 17.8493 14 17.5585 14 17.25V4.25C14 2.73122 12.7688 1.5 11.25 1.5Z" fill="black"/>
</svg>

<svg xmlns="http://www.w3.org/2000/svg" width="24" height="24" viewBox="0 0 24 24"><path fill-rule="evenodd" d="M11.25 1.5A2.75 2.75 0 008.5 4.25V18a4.5 4.5 0 109 0V5.75a.75.75 0 011.5 0V18a6 6 0 01-12 0V4.25a4.25 4.25 0 018.5 0v13c0 .688-.264 1.366-.764 1.865-.5.5-1.176.76-1.861.76-.277 0-.571-.094-.818-.21a2.824 2.824 0 01-.787-.55 2.644 2.644 0 01-.77-1.865V5.75a.75.75 0 011.5 0v11.5c0 .302.12.595.33.804a1.324 1.324 0 00.519.313.42.42 0 00.037.008 1.13 1.13 0 00.79-.32c.205-.206.324-.497.324-.805v-13a2.75 2.75 0 00-2.75-2.75z"/></svg>
